X: 9889
T: Derry, The
R: reel
M: 4/4
K: Amajor
~B3A GdBG|(3BAG BA GEDE|~G2Bd gGfG|egdB AdGd|ABBA GdBG|
(3BAG BA GEDE|1 ~G2Bd gedB|ADFA G^cd=c:|2 ~G2Bd gedg|(3efg fd agfg||
|:~e2ge Bege|fdAd (3fga gf|e2ge Bege|fedf eagf|gdBd GdBG|
(3BAG BA GEDE|1 ~G2Bd gedg|(3efg fd agfg:|2 ~G2Bd gedB|ADFA G^cd=c||
~c3B AecA|(3cBA cB AFEF|~A2ce aAgA|faec BeAe|BccB AecA|
(3cBA cB AFEF|1 ~A2ce afec|BEGB A^de=d:|2 ~A2ce afea|(3fga ge baga||
|:~f2af cfaf|geBe (3gab ag|f2af cfaf|gfeg fbag|aece AecA|
(3cBA cB AFEF|1 ~A2ce afea|(3fga ge baga:|2 ~A2ce afec|BEGB A^de=d||

